X:1
T:C Major           Alexander Gillet, 1781
T:Isaac Watts, 1709 (Hymn 6, Book 2)       86. 86. (C. M.)
T:Union
T:Transcribed from Law's Select Number of Plain Tunes, 1781.
%%score [ 1 2 3 4 ]
L:1/8
Q:1/4=150
M:3/2
K:C
V:1 treble nm="Tr." snm="Tr."
V:2 treble nm="C." snm="C."
V:3 treble-8 nm="T." snm="T."
V:4 bass nm="B." snm="B."
V:1
"^1. Once more, my soul, the  ri    –    sing    day  Sa–lutes  thy    wa – king   eyes; Once more, my voice,  thy     tri    –     bute   pay   To   him  that  rules  the skies.\n2. Night un – to  night  his  name    re –peats, The day  re – news   the  sound,  Wide as the heav'n     on      which         he    sits,  To  turn  the   sea–sons round." c4 | %1
 A8 d4 | d8 B4 | (c3 d e4) (d2 c2) | B8 d4 | f8 (d2 f2) | (e6 d2) c4 | B8 B4 | A8 d4 | %9
 (c3 d e4) c4 | B8 (f2 e2) | d8 (d2 B2) | c8 c4 | A4 G8 | G12 |] z4 | z12 | z12 | z12 | z12 | z12 | %21
 z12 | z12 | z12 | z12 | z12 | z12 | z12 | z12 | z12 |] %30
V:2
"^3. Tis  he  sup–ports  my    mor   –    tal  frame, My tongue shall speak his praise; My sins would rouse his      wrath      to   flame,  And yet his wrath  de – lays.\n4. On  a  poor  worm  thy   power  might  tread,  And  I  could  ne'er  with–stand;  Thy jus –tice  might have   crushed   me  dead,   But me–rcy held  thine hand." E4 | %1
 E8 ^F4 | G8 G4 | G8 (F2 E2) | G8 G4 | A8 G4 | (E6 A2) (A2 G2) | G8 G4 | A8 G4 | %9
 (c3 B A4) (B2 A2) | (G3 F E4) G4 | G8 D4 | F8 E4 | (A2 G2) G8 | E12 |] %15
"^Alternate Counter from Law's Christian Harmony, 1794." G4 | (G4 A4) (3(c2 B2 A2) | G8 G4 | %18
 G8 (3(E2 F2 G2) | G8 (G2 E2) | A8 (G2 c2) | c8 ((c2 A2)) | B8 G4 | A8 G4 | (c3 B A4) (B2 A2) | %25
 (G3 F E4) G4 | G8 B4 | c8 (3(c2 B2 A2) | (A4 G4) G4 | [EG]12 |] %30
V:3
"^5. A  thousand  wretched souls        are  fled  Since  the last  set – ting    sun, And yet thou length –enest   out         my  thread,  And  yet  my  mo–ments  run.\n6. Dear God, let  all  my   hours       be thine, While  I  en  –  joy      the  light, Then shall my sun          in       smiles     de  –  cline, And  bring  a  plea–sing  night." G4 | %1
 A8 A4 | G8 (G2 A2) | c8 A4 | d8 B4 | c8 G4 | c8 (3(c2 d2 e2) | d8 d4 | e8 d4 | (c3 d c4) A4 | %10
 (B3 A G4) c4 | d8 G4 | A8 c4 | e4 d8 | c12 |] z4 | z12 | z12 | z12 | z12 | z12 | z12 | z12 | z12 | %24
 z12 | z12 | z12 | z12 | z12 | z12 |] %30
V:4
"^_____________________________________________\nTune published in Law's \nSelect Number\n, 1781, without words.\nWords supplied in Law's  Rudiments of Music, 1794." C,4 | %1
 C,8 D,4 | G,,8 (E,2 D,2) | C,8 (D,2 A,2) | G,8 G,4 | F,8 G,4 | (A,6 B,2) C4 | G,8 G,4 | C8 G,4 | %9
 A,8 (G,2 F,2) | (E,3 D, E,4) C,4 | G,8 G,4 | F,8 A,4 | C4 G,8 | C,12 |] z4 | z12 | z12 | z12 | %19
 z12 | z12 | z12 | z12 | z12 | z12 | z12 | z12 | z12 | z12 | z12 |] %30

